style-guide/assets/xd-icons-gear.svg

<svg viewBox="0 0 24 24" xmlns="http://www.w3.org/2000/svg" xmlns:xlink="http://www.w3.org/1999/xlink">
  <path d="M12 19c-3.859 0-7-3.141-7-7s3.141-7 7-7 7 3.141 7 7-3.141 7-7 7m11-8h-2.056a8.96 8.96 0 0 0-1.915-4.615l1.456-1.456a.999.999 0 1 0-1.414-1.414l-1.456 1.456A8.97 8.97 0 0 0 13 3.055V1a1 1 0 1 0-2 0v2.055a8.97 8.97 0 0 0-4.615 1.916L4.929 3.515a.999.999 0 1 0-1.414 1.414l1.456 1.456A8.96 8.96 0 0 0 3.056 11H1a1 1 0 1 0 0 2h2.056a8.96 8.96 0 0 0 1.915 4.615l-1.456 1.456a.999.999 0 1 0 1.414 1.414l1.456-1.456A8.97 8.97 0 0 0 11 20.945V23a1 1 0 1 0 2 0v-2.055a8.97 8.97 0 0 0 4.615-1.916l1.456 1.456a.999.999 0 1 0 1.414-1.414l-1.456-1.456A8.96 8.96 0 0 0 20.944 13H23a1 1 0 1 0 0-2m-11 3c-1.103 0-2-.896-2-2s.897-2 2-2 2 .896 2 2-.897 2-2 2m0-6c-2.206 0-4 1.795-4 4s1.794 4 4 4 4-1.795 4-4-1.794-4-4-4"/>
</svg>

<?xml version="1.0" encoding="UTF-8"?>
<svg width="24px" height="24px" viewBox="0 0 24 24" version="1.1" xmlns="http://www.w3.org/2000/svg" xmlns:xlink="http://www.w3.org/1999/xlink">
    <!-- Generator: Sketch 51.3 (57544) - http://www.bohemiancoding.com/sketch -->
    <title>settings</title>
    <desc>Created with Sketch.</desc>
    <defs>
        <path d="M12,19 C8.141,19 5,15.859 5,12 C5,8.141 8.141,5 12,5 C15.859,5 19,8.141 19,12 C19,15.859 15.859,19 12,19 M23,11 L20.944,11 C20.752,9.267 20.065,7.68 19.029,6.385 L20.485,4.929 C20.876,4.538 20.876,3.904 20.485,3.515 C20.095,3.124 19.462,3.124 19.071,3.515 L17.615,4.971 C16.32,3.935 14.733,3.248 13,3.055 L13,1 C13,0.447 12.553,0 12,0 C11.447,0 11,0.447 11,1 L11,3.055 C9.267,3.248 7.68,3.935 6.385,4.971 L4.929,3.515 C4.538,3.124 3.905,3.124 3.515,3.515 C3.124,3.904 3.124,4.538 3.515,4.929 L4.971,6.385 C3.935,7.68 3.248,9.267 3.056,11 L1,11 C0.447,11 0,11.447 0,12 C0,12.553 0.447,13 1,13 L3.056,13 C3.248,14.733 3.935,16.32 4.971,17.615 L3.515,19.071 C3.124,19.462 3.124,20.096 3.515,20.485 C3.905,20.876 4.538,20.876 4.929,20.485 L6.385,19.029 C7.68,20.065 9.267,20.752 11,20.945 L11,23 C11,23.553 11.447,24 12,24 C12.553,24 13,23.553 13,23 L13,20.945 C14.733,20.752 16.32,20.065 17.615,19.029 L19.071,20.485 C19.462,20.876 20.095,20.876 20.485,20.485 C20.876,20.096 20.876,19.462 20.485,19.071 L19.029,17.615 C20.065,16.32 20.752,14.733 20.944,13 L23,13 C23.553,13 24,12.553 24,12 C24,11.447 23.553,11 23,11 M12,14 C10.897,14 10,13.104 10,12 C10,10.896 10.897,10 12,10 C13.103,10 14,10.896 14,12 C14,13.104 13.103,14 12,14 M12,8 C9.794,8 8,9.795 8,12 C8,14.205 9.794,16 12,16 C14.206,16 16,14.205 16,12 C16,9.795 14.206,8 12,8" id="path-1"></path>
    </defs>
    <g id="settings" stroke="none" stroke-width="1" fill="none" fill-rule="evenodd">
        <mask id="mask-2" fill="white">
            <use xlink:href="#path-1"></use>
        </mask>
        <use id="icons/24px/Settings" fill="#000000" xlink:href="#path-1"></use>
    </g>
</svg>
